src/pictures/icons/denjneshinIcon.svg

<svg width="20" height="24" viewBox="0 0 20 24" fill="none" xmlns="http://www.w3.org/2000/svg">
<path d="M11.5377 11.5732L11.4152 12.2287C11.1963 13.4217 10.8069 14.577 10.2591 15.6592C8.55666 18.9833 6.88785 18.4369 6.81113 18.4127C6.76358 18.3747 6.73152 18.3206 6.72096 18.2606L5.47339 11.6459C6.16918 11.623 10.247 11.4965 11.5377 11.5732Z" fill="#292D32"/>
<path d="M12.1754 10.5282L12.0637 11.2172C12.0566 11.2595 12.041 11.2999 12.0179 11.336C11.9948 11.3721 11.9646 11.4031 11.9291 11.4272C11.9046 11.4445 11.8779 11.4585 11.8497 11.4689C11.0651 11.3343 6.15691 11.4891 5.44228 11.5133V11.5053L5.38441 11.516H5.36422L5.31039 11.5254C5.29202 11.5268 5.27358 11.5268 5.25521 11.5254C5.18643 11.5251 5.11953 11.5029 5.06411 11.4622C5.02897 11.4363 4.9995 11.4034 4.97751 11.3657C4.95553 11.328 4.94149 11.2862 4.93625 11.2428L4.85012 10.547C4.84038 10.4644 4.86294 10.3811 4.91309 10.3147C4.96324 10.2482 5.03711 10.2037 5.11928 10.1904L5.39652 10.1433C6.0304 10.1217 10.3761 10.0087 11.5685 10.0989C11.6824 10.115 11.7954 10.1325 11.9076 10.1514C11.9646 10.1611 12.018 10.1857 12.0624 10.2227C12.1066 10.259 12.1404 10.3065 12.1602 10.3601C12.1801 10.4138 12.1853 10.4718 12.1754 10.5282Z" fill="#292D32"/>
<path d="M11.3502 8.62014L11.0811 6.40626H11.1309C11.2298 6.40551 11.3257 6.44114 11.4001 6.5064C11.4745 6.57165 11.5224 6.66198 11.5346 6.76021L11.6517 7.70229C11.6732 7.86808 11.6573 8.0366 11.6052 8.19544C11.553 8.35428 11.4659 8.49941 11.3502 8.62014Z" fill="#292D32"/>
<path d="M11.2172 8.75584C10.8051 9.10873 10.3335 9.38536 9.82431 9.57276C9.28598 9.76925 5.97123 10.0761 5.67918 10.2188L5.59574 9.54584C5.58388 9.42823 5.61827 9.31062 5.69162 9.21792C5.76498 9.12522 5.87153 9.06472 5.98872 9.04923C7.7166 8.76973 9.46893 8.6714 11.2172 8.75584Z" fill="#292D32"/>
<path d="M6.96814 24H1.21072L1.20399 23.9933C1.20577 23.0664 1.57522 22.1781 2.23124 21.5234C2.88726 20.8686 3.77626 20.5009 4.70312 20.5009H6.99774C11.6664 20.5009 15.5652 16.7931 15.6325 12.1258C15.648 10.9993 15.4397 9.88093 15.0196 8.83556C14.5995 7.79019 13.9759 6.83865 13.1852 6.03614C12.3945 5.23364 11.4522 4.59614 10.4132 4.16063C9.37414 3.72512 8.25895 3.50027 7.13233 3.49913H4.69101C3.76531 3.49735 2.87804 3.12883 2.22347 2.47427C1.56891 1.8197 1.20039 0.932425 1.19861 0.0067291L1.21072 0H7.13233C8.7171 0.00189979 10.2858 0.31732 11.7482 0.928094C13.2105 1.53887 14.5376 2.43293 15.6529 3.55877C16.7683 4.68462 17.6498 6.02 18.2469 7.48802C18.8439 8.95603 19.1446 10.5277 19.1317 12.1124C19.0671 18.7217 13.5788 24 6.96814 24Z" fill="#292D32"/>
<path d="M6.28767 18.4609H1.93394C1.68004 18.4611 1.42859 18.4112 1.19396 18.3142C0.959328 18.2172 0.746121 18.0748 0.56652 17.8954C0.38692 17.7159 0.244445 17.5028 0.147239 17.2682C0.0500326 17.0336 -6.15649e-08 16.7822 0 16.5283L0 16.418H5.89334L6.25537 18.3385C6.26173 18.3803 6.27256 18.4214 6.28767 18.4609Z" fill="#292D32"/>
<path d="M5.82874 16.076H0.966298C0.710129 16.0757 0.464554 15.9737 0.283415 15.7926C0.102277 15.6115 0.000356038 15.3659 0 15.1097L0 15.0034C0.000356038 14.7472 0.102277 14.5017 0.283415 14.3205C0.464554 14.1394 0.710129 14.0375 0.966298 14.0371H5.44384L5.82874 16.076Z" fill="#292D32"/>
<path d="M5.38328 13.6893H0V13.583C-6.15649e-08 13.3291 0.0500326 13.0777 0.147239 12.8431C0.244445 12.6085 0.386919 12.3954 0.56652 12.216C0.746121 12.0365 0.959328 11.8942 1.19396 11.7971C1.42859 11.7001 1.68004 11.6502 1.93394 11.6504H4.59867C4.64931 11.7293 4.7141 11.7982 4.78977 11.8536C4.86702 11.9097 4.95359 11.9516 5.04548 11.9774V12.0017H5.05759L5.38328 13.6893Z" fill="#292D32"/>
</svg>

<svg width="20" height="24" fill="none" xmlns="http://www.w3.org/2000/svg"><path d="m11.538 11.573-.123.656a12.652 12.652 0 0 1-1.156 3.43c-1.702 3.324-3.371 2.778-3.448 2.754a.25.25 0 0 1-.09-.152l-1.248-6.615c.696-.023 4.774-.15 6.065-.073zM12.175 10.528l-.111.69a.318.318 0 0 1-.135.21.344.344 0 0 1-.08.04c-.784-.134-5.692.021-6.407.045v-.008l-.058.011h-.02l-.054.01a.363.363 0 0 1-.055 0 .325.325 0 0 1-.277-.16.32.32 0 0 1-.042-.123l-.086-.696a.323.323 0 0 1 .27-.357l.277-.047c.633-.021 4.98-.134 6.171-.044.114.016.227.034.34.052a.328.328 0 0 1 .267.377zM11.35 8.62l-.269-2.214h.05a.404.404 0 0 1 .404.354l.117.942a1.12 1.12 0 0 1-.302.918z" fill="#292D32"/><path d="M11.217 8.756c-.412.353-.883.63-1.393.817-.538.196-3.853.503-4.145.646l-.083-.673a.455.455 0 0 1 .393-.497c1.728-.28 3.48-.378 5.228-.293z" fill="#292D32"/><path d="M6.968 24H1.211l-.007-.007a3.499 3.499 0 0 1 3.5-3.492h2.294c4.668 0 8.567-3.708 8.634-8.375a8.51 8.51 0 0 0-8.5-8.627H4.691A3.5 3.5 0 0 1 1.199.007L1.21 0h5.921a12.014 12.014 0 0 1 12 12.112C19.067 18.722 13.579 24 6.968 24z" fill="#292D32"/><path d="M6.288 18.46H1.934A1.933 1.933 0 0 1 0 16.529v-.11h5.893l.362 1.92a.592.592 0 0 0 .033.123zM5.829 16.076H.966A.968.968 0 0 1 0 15.11v-.107a.968.968 0 0 1 .966-.966h4.478l.385 2.039zM5.383 13.69H0v-.107a1.933 1.933 0 0 1 1.934-1.933h2.665a.762.762 0 0 0 .446.327v.025h.013l.325 1.687z" fill="#292D32"/></svg>
